public/img/svgs/icons/calendar.svg

<svg width="25" height="24" viewBox="0 0 25 24" fill="none" xmlns="http://www.w3.org/2000/svg">
<path fill-rule="evenodd" clip-rule="evenodd" d="M0.752014 5.25C0.752014 4.42157 1.42359 3.75 2.25201 3.75H21.752C22.5804 3.75 23.252 4.42157 23.252 5.25V21.75C23.252 22.5784 22.5804 23.25 21.752 23.25H2.25201C1.42359 23.25 0.752014 22.5784 0.752014 21.75V5.25Z" stroke="#2B2F51" stroke-width="1.5" stroke-linecap="round" stroke-linejoin="round"/>
<path d="M0.752014 9.75H23.252" stroke="#2B2F51" stroke-width="1.5" stroke-linecap="round" stroke-linejoin="round"/>
<path d="M6.75201 6V0.75" stroke="#2B2F51" stroke-width="1.5" stroke-linecap="round" stroke-linejoin="round"/>
<path d="M17.252 6V0.75" stroke="#2B2F51" stroke-width="1.5" stroke-linecap="round" stroke-linejoin="round"/>
</svg>

<svg width="25" height="24" fill="none" xmlns="http://www.w3.org/2000/svg"><path clip-rule="evenodd" d="M.752 5.25a1.5 1.5 0 011.5-1.5h19.5a1.5 1.5 0 011.5 1.5v16.5a1.5 1.5 0 01-1.5 1.5h-19.5a1.5 1.5 0 01-1.5-1.5V5.25z" stroke="#2B2F51" stroke-width="1.5" stroke-linecap="round" stroke-linejoin="round"/><path d="M.752 9.75h22.5M6.752 6V.75M17.252 6V.75" stroke="#2B2F51" stroke-width="1.5" stroke-linecap="round" stroke-linejoin="round"/></svg>
